vendor/shopware/storefront/Resources/app/storefront/dist/assets/icon/default/beer.svg

<svg xmlns="http://www.w3.org/2000/svg" width="24" height="24" viewBox="0 0 24 24">
  <path fill="#758CA3" fill-rule="evenodd" d="M14,6 L18.1340788,6 C18.2005943,5.88483695 18.2902543,5.78261599 18.3994223,5.70061666 C18.7754909,5.41814063 19,4.978665 19,4.5 C19,3.67157288 18.3284271,3 17.5,3 C17.0933514,3 16.7147791,3.16122289 16.4342155,3.44448881 C15.9435581,3.93987203 15.1093,3.79369297 14.816305,3.16099788 C14.4910829,2.4587115 13.787364,2 13,2 C12.240592,2 11.5578571,2.42638939 11.2178642,3.0908584 C10.9233093,3.66652513 10.1680718,3.81547355 9.67700761,3.39474709 C9.39198786,3.15055222 8.96799223,3 8.5,3 C7.77359641,3 7.18663697,3.36112164 7.03636817,3.78943064 C6.82067102,4.40422916 6.08405614,4.65186599 5.54076952,4.29222433 C5.26157343,4.10740376 4.89566917,4 4.5,4 C3.62866287,4 3,4.5029303 3,5 L3,6.5 C3,7.32842712 3.67157288,8 4.5,8 C5.21645559,8 5.82945515,7.4933336 5.96997769,6.80106781 C6.06459011,6.33497217 6.47438959,6 6.94999094,6 L11,6 L14,6 Z M11,8 L7.66332388,8 C7.09707453,9.19383948 5.88158652,10 4.5,10 C4.33023933,10 4.16330149,9.98791402 4,9.96455557 L4,21.999988 L18,21.999988 L18,8 L11,8 Z M2,8.94949137 C1.38140649,8.31822282 1,7.45365254 1,6.5 L1,5 C1,3.2879307 2.60991338,2 4.5,2 C4.91773102,2 5.32602949,2.06259389 5.70875011,2.18228121 C6.36045164,1.44585719 7.38867977,1 8.5,1 C9.04317151,1 9.56978958,1.10600188 10.0440799,1.30451643 C10.7869727,0.489943165 11.8500353,0 13,0 C14.1690817,0 15.246523,0.506364794 15.9896675,1.34191442 C16.4537098,1.11978987 16.9677529,1 17.5,1 C19.4329966,1 21,2.56700338 21,4.5 C21,5.43247929 20.6319987,6.30510891 20,6.94967352 L20,6.97483676 L20,9 L21,9 C22.6568542,9 24,10.3431458 24,12 L24,17 C24,18.6568542 22.6568542,20 21,20 L20,20 L20,21.999988 C20,23.1045575 19.1045695,23.999988 18,23.999988 L4,23.999988 C2.8954305,23.999988 2,23.1045575 2,21.999988 L2,8.94949137 Z M20,11 L20,18 L21,18 C21.5522847,18 22,17.5522847 22,17 L22,12 C22,11.4477153 21.5522847,11 21,11 L20,11 Z M6,12 C6,11.4477153 6.44771525,11 7,11 C7.55228475,11 8,11.4477153 8,12 L8,18 C8,18.5522847 7.55228475,19 7,19 C6.44771525,19 6,18.5522847 6,18 L6,12 Z M10,12 C10,11.4477153 10.4477153,11 11,11 C11.5522847,11 12,11.4477153 12,12 L12,18 C12,18.5522847 11.5522847,19 11,19 C10.4477153,19 10,18.5522847 10,18 L10,12 Z M14,12 C14,11.4477153 14.4477153,11 15,11 C15.5522847,11 16,11.4477153 16,12 L16,18 C16,18.5522847 15.5522847,19 15,19 C14.4477153,19 14,18.5522847 14,18 L14,12 Z"/>
</svg>

<svg xmlns="http://www.w3.org/2000/svg" width="24" height="24" viewBox="0 0 24 24"><path fill="#758CA3" fill-rule="evenodd" d="M14 6h4.134a.9995.9995 0 0 1 .2654-.2994A1.496 1.496 0 0 0 19 4.5c0-.8284-.6716-1.5-1.5-1.5a1.492 1.492 0 0 0-1.0658.4445c-.4906.4954-1.3249.3492-1.6179-.2835A2.0002 2.0002 0 0 0 13 2a1.9996 1.9996 0 0 0-1.7821 1.0909c-.2946.5756-1.0498.7246-1.5409.3038C9.392 3.1506 8.968 3 8.5 3c-.7264 0-1.3134.3611-1.4636.7894-.2157.6148-.9523.8625-1.4956.5028C5.2616 4.1074 4.8957 4 4.5 4 3.6287 4 3 4.503 3 5v1.5C3 7.3284 3.6716 8 4.5 8c.7165 0 1.3295-.5067 1.47-1.199A1 1 0 0 1 6.95 6H14zm-3 2H7.6633C7.0971 9.1938 5.8816 10 4.5 10c-.1698 0-.3367-.012-.5-.0354V22h14V8h-7zm-9 .9495C1.3814 8.3182 1 7.4537 1 6.5V5c0-1.712 1.61-3 3.5-3 .4177 0 .826.0626 1.2088.1823C6.3605 1.4459 7.3887 1 8.5 1c.5432 0 1.0698.106 1.544.3045A3.9958 3.9958 0 0 1 13 0a3.997 3.997 0 0 1 2.9897 1.342A3.493 3.493 0 0 1 17.5 1C19.433 1 21 2.567 21 4.5c0 .9325-.368 1.8051-1 2.4497V9h1c1.6569 0 3 1.3431 3 3v5c0 1.6569-1.3431 3-3 3h-1v2c0 1.1046-.8954 2-2 2H4c-1.1046 0-2-.8954-2-2V8.9495zM20 11v7h1c.5523 0 1-.4477 1-1v-5c0-.5523-.4477-1-1-1h-1zM6 12c0-.5523.4477-1 1-1s1 .4477 1 1v6c0 .5523-.4477 1-1 1s-1-.4477-1-1v-6zm4 0c0-.5523.4477-1 1-1s1 .4477 1 1v6c0 .5523-.4477 1-1 1s-1-.4477-1-1v-6zm4 0c0-.5523.4477-1 1-1s1 .4477 1 1v6c0 .5523-.4477 1-1 1s-1-.4477-1-1v-6z"/></svg>
